Sweet-Rainbow/icons/simplenote.svg

<?xml version="1.0" encoding="UTF-8" standalone="no"?>
<!-- Generator: Gravit.io -->

<svg
   xmlns:dc="http://purl.org/dc/elements/1.1/"
   xmlns:cc="http://creativecommons.org/ns#"
   xmlns:rdf="http://www.w3.org/1999/02/22-rdf-syntax-ns#"
   xmlns:svg="http://www.w3.org/2000/svg"
   xmlns="http://www.w3.org/2000/svg"
   xmlns:sodipodi="http://sodipodi.sourceforge.net/DTD/sodipodi-0.dtd"
   xmlns:inkscape="http://www.inkscape.org/namespaces/inkscape"
   style="isolation:isolate"
   viewBox="0 0 36 36"
   width="48"
   height="48"
   version="1.1"
   id="svg9"
   sodipodi:docname="simplenote.svg"
   inkscape:version="0.92.4 (5da689c313, 2019-01-14)">
  <metadata
     id="metadata15">
    <rdf:RDF>
      <cc:Work
         rdf:about="">
        <dc:format>image/svg+xml</dc:format>
        <dc:type
           rdf:resource="http://purl.org/dc/dcmitype/StillImage" />
        <dc:title></dc:title>
      </cc:Work>
    </rdf:RDF>
  </metadata>
  <defs
     id="defs13" />
  <sodipodi:namedview
     pagecolor="#ffffff"
     bordercolor="#666666"
     borderopacity="1"
     objecttolerance="10"
     gridtolerance="10"
     guidetolerance="10"
     inkscape:pageopacity="0"
     inkscape:pageshadow="2"
     inkscape:window-width="640"
     inkscape:window-height="480"
     id="namedview11"
     showgrid="false"
     inkscape:zoom="29.365243"
     inkscape:cx="25.325443"
     inkscape:cy="32"
     inkscape:current-layer="svg9"
     units="px" />
  <linearGradient
     id="_lgradient_8"
     x1="0"
     y1="0.5"
     x2="0.90748805"
     y2="0.92007786"
     gradientTransform="scale(48)"
     gradientUnits="userSpaceOnUse">
    <stop
       offset="0%"
       stop-opacity="1"
       style="stop-color:rgb(0,196,255)"
       id="stop2" />
    <stop
       offset="83.88839793817618%"
       stop-opacity="1"
       style="stop-color:rgb(0,114,255)"
       id="stop4" />
  </linearGradient>
  <g
     id="g826"
     transform="scale(0.75)">
    <path
       id="path7"
       d="m 17.78,43.01 v 0 c -1.049,-0.342 -2.178,0.231 -2.52,1.28 v 0 c -0.342,1.049 0.231,2.178 1.28,2.52 v 0 C 18.94,47.6 21.45,48 23.97,48 32.32,48 40.1,43.66 44.46,36.54 46.77,32.78 48,28.44 48,24.03 48,15.68 43.66,7.9 36.54,3.54 32.78,1.23 28.45,0 24.03,0 15.68,0 7.9,4.34 3.54,11.46 1.23,15.22 0,19.55 0,23.97 0,29.61 1.98,35.08 5.59,39.41 v 0 c 0.712,0.844 1.978,0.956 2.825,0.25 v 0 C 9.262,38.954 9.372,37.69 8.66,36.84 v 0 C 5.65,33.23 4,28.68 4,23.97 4,20.3 5.02,16.69 6.95,13.55 10.59,7.62 17.07,4 24.03,4 27.71,4 31.31,5.02 34.45,6.95 40.38,10.59 44,17.07 44,24.03 44,27.7 42.98,31.31 41.05,34.45 37.41,40.38 30.93,44 23.97,44 21.87,44 19.78,43.67 17.78,43.01 Z M 12.417,34.288 C 10.12,31.789 8.302,28.546 8.066,24.198 V 22.93 c 0.093,-1.837 0.561,-3.501 1.148,-5.015 0.761,-1.963 1.935,-3.84 3.324,-5.015 -0.002,0.939 0.023,1.836 0.12,2.417 0.294,1.762 1.276,3.693 2.478,4.894 0.973,0.973 2.278,1.641 3.625,2.355 2.687,1.426 5.243,2.685 7.914,4.108 1.719,0.917 3.488,2.049 3.988,3.867 0.707,2.573 -0.794,4.958 -1.995,6.223 C 27.561,37.931 26.11,38.73 24.379,39 h -2.054 c -4.243,-0.474 -7.602,-2.203 -9.908,-4.712 z m 10.21,-15.527 c 2.477,1.298 5.034,2.615 7.553,3.927 1.297,0.676 2.478,1.375 3.382,2.356 1.649,1.785 2.677,4.115 2.478,7.492 0.408,-0.395 0.778,-0.945 1.087,-1.511 0.898,-1.644 1.625,-3.738 1.813,-6.163 -0.01,-0.07 0.012,-0.107 0.06,-0.121 V 22.324 C 37.936,13.825 32.153,8.721 24.016,8.066 h -0.785 c -1.59,0.266 -3.139,0.72 -4.048,1.753 -0.639,0.724 -1.141,2.011 -1.209,2.84 -0.285,3.553 2.262,4.848 4.653,6.102 z"
       inkscape:connector-curvature="0"
       style="fill:url(#_lgradient_8);fill-rule:evenodd" />
  </g>
</svg>

<?xml version="1.0" encoding="UTF-8" standalone="no"?><!-- Generator: Gravit.io --><svg xmlns="http://www.w3.org/2000/svg" xmlns:xlink="http://www.w3.org/1999/xlink" style="isolation:isolate" viewBox="0 0 48 48" width="48pt" height="48pt"><linearGradient id="_lgradient_8" x1="0" y1="0.5" x2="0.9074880558539661" y2="0.9200778838291643" gradientTransform="matrix(48,0,0,48,0,0)" gradientUnits="userSpaceOnUse"><stop offset="0%" stop-opacity="1" style="stop-color:rgb(0,196,255)"/><stop offset="83.88839793817618%" stop-opacity="1" style="stop-color:rgb(0,114,255)"/></linearGradient><path d=" M 17.78 43.01 L 17.78 43.01 C 16.731 42.668 15.602 43.241 15.26 44.29 L 15.26 44.29 C 14.918 45.339 15.491 46.468 16.54 46.81 L 16.54 46.81 C 18.94 47.6 21.45 48 23.97 48 C 32.32 48 40.1 43.66 44.46 36.54 C 46.77 32.78 48 28.44 48 24.03 C 48 15.68 43.66 7.9 36.54 3.54 C 32.78 1.23 28.45 0 24.03 0 C 15.68 0 7.9 4.34 3.54 11.46 C 1.23 15.22 0 19.55 0 23.97 C 0 29.61 1.98 35.08 5.59 39.41 L 5.59 39.41 C 6.302 40.254 7.568 40.366 8.415 39.66 L 8.415 39.66 C 9.262 38.954 9.372 37.69 8.66 36.84 L 8.66 36.84 C 5.65 33.23 4 28.68 4 23.97 C 4 20.3 5.02 16.69 6.95 13.55 C 10.59 7.62 17.07 4 24.03 4 C 27.71 4 31.31 5.02 34.45 6.95 C 40.38 10.59 44 17.07 44 24.03 C 44 27.7 42.98 31.31 41.05 34.45 C 37.41 40.38 30.93 44 23.97 44 C 21.87 44 19.78 43.67 17.78 43.01 Z  M 12.417 34.288 C 10.12 31.789 8.302 28.546 8.066 24.198 L 8.066 22.93 C 8.159 21.093 8.627 19.429 9.214 17.915 C 9.975 15.952 11.149 14.075 12.538 12.9 C 12.536 13.839 12.561 14.736 12.658 15.317 C 12.952 17.079 13.934 19.01 15.136 20.211 C 16.109 21.184 17.414 21.852 18.761 22.566 C 21.448 23.992 24.004 25.251 26.675 26.674 C 28.394 27.591 30.163 28.723 30.663 30.541 C 31.37 33.114 29.869 35.499 28.668 36.764 C 27.561 37.931 26.11 38.73 24.379 39 L 22.325 39 C 18.082 38.526 14.723 36.797 12.417 34.288 L 12.417 34.288 Z  M 22.627 18.761 C 25.104 20.059 27.661 21.376 30.18 22.688 C 31.477 23.364 32.658 24.063 33.562 25.044 C 35.211 26.829 36.239 29.159 36.04 32.536 C 36.448 32.141 36.818 31.591 37.127 31.025 C 38.025 29.381 38.752 27.287 38.94 24.862 C 38.93 24.792 38.952 24.755 39 24.741 L 39 22.324 C 37.936 13.825 32.153 8.721 24.016 8.066 L 23.231 8.066 C 21.641 8.332 20.092 8.786 19.183 9.819 C 18.544 10.543 18.042 11.83 17.974 12.659 C 17.689 16.212 20.236 17.507 22.627 18.761 L 22.627 18.761 Z " fill-rule="evenodd" fill="url(#_lgradient_8)"/></svg>
